X:835
T:Lady Ann Steuart. JBut.830
Z:Village Music Project 2019 Nigel Rainer
B:John Buttrey MS, poss. Lincolnshire, early 19thC
S:https://buttreymilitarysocialtunes1800.wordpress.com
N:First anacrusis amended to triplet to ensure correct note values.
M:C|
L:1/8
Q:1/4=120
K:G
(3d/e/f/|g>d de d2 Bd|eGdG FAAd|gdde {e}d2 BG|F/G/A FE DGG:|
:|B|GBEG DGB,G|G/A/B AG FAAB|GBEG DGB,G|F/G/A FE DGGB|
GBEG DGB,G|G/A/B/c/ dG FAAB|GB,CD EFGe|dGFE DGG:|

